Numix-Light/16/status/indicator-keyboard-Sv-7.svg

<?xml version="1.0" encoding="UTF-8" standalone="no"?>
<svg
   xmlns:dc="http://purl.org/dc/elements/1.1/"
   xmlns:cc="http://creativecommons.org/ns#"
   xmlns:rdf="http://www.w3.org/1999/02/22-rdf-syntax-ns#"
   xmlns:svg="http://www.w3.org/2000/svg"
   xmlns="http://www.w3.org/2000/svg"
   xmlns:sodipodi="http://sodipodi.sourceforge.net/DTD/sodipodi-0.dtd"
   xmlns:inkscape="http://www.inkscape.org/namespaces/inkscape"
   viewBox="0 0 16 16"
   id="svg2"
   version="1.1"
   inkscape:version="0.91 r13725"
   sodipodi:docname="indicator-keyboard-Sv-7.svg">
  <metadata
     id="metadata14">
    <rdf:RDF>
      <cc:Work
         rdf:about="">
        <dc:format>image/svg+xml</dc:format>
        <dc:type
           rdf:resource="http://purl.org/dc/dcmitype/StillImage" />
      </cc:Work>
    </rdf:RDF>
  </metadata>
  <defs
     id="defs12" />
  <sodipodi:namedview
     pagecolor="#ffffff"
     bordercolor="#666666"
     borderopacity="1"
     objecttolerance="10"
     gridtolerance="10"
     guidetolerance="10"
     inkscape:pageopacity="0"
     inkscape:pageshadow="2"
     inkscape:window-width="640"
     inkscape:window-height="480"
     id="namedview10"
     showgrid="false"
     inkscape:zoom="14.75"
     inkscape:cx="8"
     inkscape:cy="8"
     inkscape:window-x="65"
     inkscape:window-y="24"
     inkscape:window-maximized="0"
     inkscape:current-layer="svg2" />
  <path
     style="fill:#353535;fill-opacity:1"
     d="M 1.5996094 0 C 0.71320937 2.9605947e-16 0 0.71320937 0 1.5996094 L 0 14.400391 C 2.9605947e-16 15.286791 0.71320937 16 1.5996094 16 L 14.400391 16 C 15.286791 16 16 15.286791 16 14.400391 L 16 1.5996094 C 16 0.71320937 15.286791 0 14.400391 0 L 1.5996094 0 z M 4.4589844 4.7246094 C 4.6269844 4.7246094 4.7930781 4.7357656 4.9550781 4.7597656 C 5.1170781 4.7837656 5.2662969 4.817375 5.4042969 4.859375 C 5.5482969 4.895375 5.6770156 4.936375 5.7910156 4.984375 C 5.9110156 5.032375 6.0098906 5.0846719 6.0878906 5.1386719 L 5.8730469 5.6503906 C 5.6990469 5.5303906 5.4844219 5.4352813 5.2324219 5.3632812 C 4.9864219 5.2912813 4.7196406 5.2558594 4.4316406 5.2558594 C 4.2336406 5.2558594 4.0508125 5.2763594 3.8828125 5.3183594 C 3.7208125 5.3543594 3.5809375 5.4178125 3.4609375 5.5078125 C 3.3409375 5.5918125 3.243875 5.6980781 3.171875 5.8300781 C 3.105875 5.9620781 3.0742188 6.1225938 3.0742188 6.3085938 C 3.0742188 6.5005938 3.1096406 6.6629219 3.1816406 6.7949219 C 3.2536406 6.9269219 3.3525156 7.0407187 3.4785156 7.1367188 C 3.6105156 7.2327187 3.7635 7.3184844 3.9375 7.3964844 C 4.1115 7.4744844 4.2999062 7.556625 4.5039062 7.640625 C 4.7499063 7.742625 4.9812656 7.8433125 5.1972656 7.9453125 C 5.4192656 8.0473125 5.6114375 8.1686406 5.7734375 8.3066406 C 5.9354375 8.4446406 6.0641562 8.6125469 6.1601562 8.8105469 C 6.2561563 9.0085469 6.3046875 9.2510625 6.3046875 9.5390625 C 6.3046875 10.103063 6.1069375 10.526594 5.7109375 10.808594 C 5.3209375 11.090594 4.7891875 11.230469 4.1171875 11.230469 C 3.8771875 11.230469 3.6589375 11.215547 3.4609375 11.185547 C 3.2629375 11.155547 3.0856875 11.120125 2.9296875 11.078125 C 2.7736875 11.030125 2.6412031 10.981594 2.5332031 10.933594 C 2.4252031 10.885594 2.34125 10.844594 2.28125 10.808594 L 2.4785156 10.277344 C 2.5385156 10.313344 2.6206562 10.354344 2.7226562 10.402344 C 2.8246562 10.450344 2.9440313 10.498875 3.0820312 10.546875 C 3.2200312 10.588875 3.3767813 10.624297 3.5507812 10.654297 C 3.7247812 10.684297 3.9169531 10.699219 4.1269531 10.699219 C 4.6129531 10.699219 4.9897656 10.613453 5.2597656 10.439453 C 5.5297656 10.259453 5.6660156 9.970219 5.6660156 9.5742188 C 5.6660156 9.3462187 5.62125 9.1578125 5.53125 9.0078125 C 5.44725 8.8518125 5.3315 8.7230938 5.1875 8.6210938 C 5.0435 8.5130937 4.8793594 8.4235625 4.6933594 8.3515625 C 4.5073594 8.2735625 4.3114219 8.1914219 4.1074219 8.1074219 C 3.8494219 8.0054219 3.6200156 7.9009687 3.4160156 7.7929688 C 3.2120156 7.6849688 3.0365781 7.5655937 2.8925781 7.4335938 C 2.7485781 7.2955937 2.6385469 7.1388438 2.5605469 6.9648438 C 2.4885469 6.7908437 2.453125 6.5875156 2.453125 6.3535156 C 2.453125 5.8195156 2.6284219 5.4146719 2.9824219 5.1386719 C 3.3364219 4.8626719 3.8289844 4.7246094 4.4589844 4.7246094 z M 6.7089844 6.4433594 L 7.328125 6.4433594 C 7.400125 6.7613594 7.4878437 7.10275 7.5898438 7.46875 C 7.6978437 7.82875 7.8116406 8.1888281 7.9316406 8.5488281 C 8.0576406 8.9028281 8.1863594 9.2479844 8.3183594 9.5839844 C 8.4503594 9.9139846 8.5790781 10.208797 8.7050781 10.466797 C 8.8310781 10.208797 8.96175 9.9139846 9.09375 9.5839844 C 9.22575 9.2479844 9.3507031 8.9028281 9.4707031 8.5488281 C 9.5967031 8.1888281 9.7105 7.82875 9.8125 7.46875 C 9.9205 7.10275 10.011984 6.7613594 10.083984 6.4433594 L 10.667969 6.4433594 C 10.559969 6.8693594 10.440594 7.289125 10.308594 7.703125 C 10.176594 8.117125 10.034766 8.5219688 9.8847656 8.9179688 C 9.7407656 9.3139687 9.5877813 9.6945467 9.4257812 10.060547 C 9.2697813 10.426547 9.1167969 10.771703 8.9667969 11.095703 L 8.4082031 11.095703 C 8.2522031 10.771703 8.0974062 10.426547 7.9414062 10.060547 C 7.7854063 9.6945467 7.6324219 9.3139687 7.4824219 8.9179688 C 7.3384219 8.5219688 7.2003594 8.117125 7.0683594 7.703125 C 6.9363594 7.289125 6.8169844 6.8693594 6.7089844 6.4433594 z M 11.255859 8.8417969 L 13.71875 8.8417969 L 13.71875 9.1816406 C 13.58615 9.3415406 13.439197 9.5551188 13.279297 9.8242188 C 13.123297 10.089419 12.976337 10.391163 12.835938 10.726562 C 12.695538 11.058062 12.572097 11.410756 12.466797 11.785156 C 12.365397 12.159556 12.302697 12.529884 12.279297 12.896484 L 11.876953 12.896484 C 11.900353 12.572784 11.957181 12.229888 12.050781 11.867188 C 12.148281 11.504488 12.265844 11.1518 12.402344 10.8125 C 12.542744 10.4732 12.693616 10.161653 12.853516 9.8769531 C 13.017316 9.5922532 13.174072 9.3649594 13.326172 9.1933594 L 11.255859 9.1933594 L 11.255859 8.8417969 z "
     id="path4" />
</svg>

<svg xmlns="http://www.w3.org/2000/svg" viewBox="0 0 16 16">
 <path d="m 1.6 0 c -0.886 0 -1.6 0.713 -1.6 1.6 l 0 12.801 c 0 0.886 0.713 1.6 1.6 1.6 l 12.801 0 c 0.886 0 1.6 -0.713 1.6 -1.6 l 0 -12.801 c 0 -0.886 -0.713 -1.6 -1.6 -1.6 l -12.801 0 z m 2.859 4.725 c 0.168 0 0.334 0.011 0.496 0.035 c 0.162 0.024 0.311 0.058 0.449 0.1 c 0.144 0.036 0.273 0.077 0.387 0.125 c 0.12 0.048 0.219 0.1 0.297 0.154 l -0.215 0.512 c -0.174 -0.12 -0.389 -0.215 -0.641 -0.287 c -0.246 -0.072 -0.513 -0.107 -0.801 -0.107 c -0.198 0 -0.381 0.02 -0.549 0.063 c -0.162 0.036 -0.302 0.099 -0.422 0.189 c -0.12 0.084 -0.217 0.19 -0.289 0.322 c -0.066 0.132 -0.098 0.293 -0.098 0.479 c 0 0.192 0.035 0.354 0.107 0.486 c 0.072 0.132 0.171 0.246 0.297 0.342 c 0.132 0.096 0.285 0.182 0.459 0.26 c 0.174 0.078 0.362 0.16 0.566 0.244 c 0.246 0.102 0.477 0.203 0.693 0.305 c 0.222 0.102 0.414 0.223 0.576 0.361 c 0.162 0.138 0.291 0.306 0.387 0.504 c 0.096 0.198 0.145 0.441 0.145 0.729 c 0 0.564 -0.198 0.988 -0.594 1.27 c -0.39 0.282 -0.922 0.422 -1.594 0.422 c -0.24 0 -0.458 -0.015 -0.656 -0.045 c -0.198 -0.03 -0.375 -0.065 -0.531 -0.107 c -0.156 -0.048 -0.288 -0.097 -0.396 -0.145 c -0.108 -0.048 -0.192 -0.089 -0.252 -0.125 l 0.197 -0.531 c 0.06 0.036 0.142 0.077 0.244 0.125 c 0.102 0.048 0.221 0.097 0.359 0.145 c 0.138 0.042 0.295 0.077 0.469 0.107 c 0.174 0.03 0.366 0.045 0.576 0.045 c 0.486 0 0.863 -0.086 1.133 -0.26 c 0.27 -0.18 0.406 -0.469 0.406 -0.865 c 0 -0.228 -0.045 -0.416 -0.135 -0.566 c -0.084 -0.156 -0.2 -0.285 -0.344 -0.387 c -0.144 -0.108 -0.308 -0.198 -0.494 -0.27 c -0.186 -0.078 -0.382 -0.16 -0.586 -0.244 c -0.258 -0.102 -0.487 -0.206 -0.691 -0.314 c -0.204 -0.108 -0.379 -0.227 -0.523 -0.359 c -0.144 -0.138 -0.254 -0.295 -0.332 -0.469 c -0.072 -0.174 -0.107 -0.377 -0.107 -0.611 c 0 -0.534 0.175 -0.939 0.529 -1.215 c 0.354 -0.276 0.847 -0.414 1.477 -0.414 z m 2.25 1.719 l 0.619 0 c 0.072 0.318 0.16 0.659 0.262 1.025 c 0.108 0.36 0.222 0.72 0.342 1.08 c 0.126 0.354 0.255 0.699 0.387 1.035 c 0.132 0.33 0.261 0.625 0.387 0.883 c 0.126 -0.258 0.257 -0.553 0.389 -0.883 c 0.132 -0.336 0.257 -0.681 0.377 -1.035 c 0.126 -0.36 0.24 -0.72 0.342 -1.08 c 0.108 -0.366 0.199 -0.707 0.271 -1.025 l 0.584 0 c -0.108 0.426 -0.227 0.846 -0.359 1.26 c -0.132 0.414 -0.274 0.819 -0.424 1.215 c -0.144 0.396 -0.297 0.777 -0.459 1.143 c -0.156 0.366 -0.309 0.711 -0.459 1.035 l -0.559 0 c -0.156 -0.324 -0.311 -0.669 -0.467 -1.035 c -0.156 -0.366 -0.309 -0.747 -0.459 -1.143 c -0.144 -0.396 -0.282 -0.801 -0.414 -1.215 c -0.132 -0.414 -0.251 -0.834 -0.359 -1.26 z m 4.547 2.398 l 2.463 0 l 0 0.34 c -0.133 0.16 -0.28 0.373 -0.439 0.643 c -0.156 0.265 -0.303 0.567 -0.443 0.902 c -0.14 0.332 -0.264 0.684 -0.369 1.059 c -0.101 0.374 -0.164 0.745 -0.188 1.111 l -0.402 0 c 0.023 -0.324 0.08 -0.667 0.174 -1.029 c 0.098 -0.363 0.215 -0.715 0.352 -1.055 c 0.14 -0.339 0.291 -0.651 0.451 -0.936 c 0.164 -0.285 0.321 -0.512 0.473 -0.684 l -2.07 0 l 0 -0.352 z" style="fill:#353535;fill-opacity:1"/>
</svg>
